Hatter-kde/actions/24/bookmark-new.svg

<?xml version="1.0" encoding="UTF-8"?>
<svg viewBox="0 0 24 24" xmlns="http://www.w3.org/2000/svg">
 <defs id="defs3051">
  <style id="current-color-scheme" type="text/css">.ColorScheme-Text {
        color:#363636;
      }</style>
 </defs>
 <path class="ColorScheme-Text" d="m7 4v1 14 1l5-2 5 2v-1-14-1h-10zm1 1h8v13.6l-4-1.5996-4 1.5996v-13.6z" fill="currentColor"/>
</svg>

<svg xmlns="http://www.w3.org/2000/svg" viewBox="0 0 24 24">
  <defs id="defs3051">
    <style type="text/css" id="current-color-scheme">
      .ColorScheme-Text {
        color:#363636;
      }
      </style>
  </defs>
 <path style="fill:currentColor;fill-opacity:1;stroke:none" 
     d="M 7 4 L 7 5 L 7 19 L 7 20 L 12 18 L 17 20 L 17 19 L 17 5 L 17 4 L 7 4 z M 8 5 L 16 5 L 16 18.599609 L 12 17 L 8 18.599609 L 8 5 z "
     class="ColorScheme-Text"
     />
</svg>
